X:145
T:Vals efter Daniel Spets
T:(Sv. L. Sm. 145) 
R:Vals
O:Skatelöv, Småland
S:efter Daniel Spets
S:efter Johan Magnus Dahl
B:Svenska Låtar Småland
N:Sv. L. Sm. 145
N:Jämför med Loka Britas Låt
M:3/4
L:1/8
K:D
|:e2 e2 g2|{g}f2 d2 (fg/f/)|e2 A2 ce|e2 d2 cd|
e2 ee eg|{g}f2 d2 (fg/f/)|e2 A2 ce|[1 d2 z2 z2:|[2 d2 z2 d=c|]
K:Ddor
|:A2 A2 Ac|B2 G2 Bc/B/|A2 AA ^ce|e2 d2 d=c|
A2 A2 Ac|B2 G2 Bc/B/|A2 AA ^ce|[1 d2 z2 d=c:|[2 d2 z2 z2|]

